MODULE Tracer_Program

  CONST speeddata vel20 := [20,20,5000,1000];
  CONST speeddata vel100 := [100,100,5000,1000];
  CONST speeddata vel50 := [50,50,5000,1000];
  CONST speeddata vel25 := [25,25,5000,1000];

  PERS tooldata marker := [TRUE, [[0,0,100],[1, 0, 0, 0]], [0.5,[0, 0, 50],[1,0,0,0],0,0,0]];

  PROC main()
    ConfJ \Off;
    ConfL \Off;

    ! Tool "marker" attached
    MoveAbsJ [[0,0,0,0,90,0], [0,9E9,9E9,9E9,9E9,9E9]], vel100, z5, marker\WObj:=WObj0;
    TPWrite "Drawing stroke #0";
    MoveL [[291.071, -21.015, 110], [0, 0, 1, 0], [0,0,0,0], [0,9E9,9E9,9E9,9E9,9E9]], vel100, z5, marker\WObj:=WObj0;
    MoveL [[291.071, -21.015, 85], [0, 0, 1, 0], [0,0,0,0], [0,9E9,9E9,9E9,9E9,9E9]], vel50, z1, marker\WObj:=WObj0;
    MoveL [[291.521, -24.839, 85], [0, 0, 1, 0], [0,0,0,0], [0,9E9,9E9,9E9,9E9,9E9]], vel25, z1, marker\WObj:=WObj0;
    MoveL [[292.421, -28.212, 85], [0, 0, 1, 0], [0,0,0,0], [0,9E9,9E9,9E9,9E9,9E9]], vel25, z1, marker\WObj:=WObj0;
    MoveL [[293.545, -31.585, 85], [0, 0, 1, 0], [0,0,0,0], [0,9E9,9E9,9E9,9E9,9E9]], vel25, z1, marker\WObj:=WObj0;
    MoveL [[295.344, -34.959, 85], [0, 0, 1, 0], [0,0,0,0], [0,9E9,9E9,9E9,9E9,9E9]], vel25, z1, marker\WObj:=WObj0;
    MoveL [[297.368, -38.332, 85], [0, 0, 1, 0], [0,0,0,0], [0,9E9,9E9,9E9,9E9,9E9]], vel25, z1, marker\WObj:=WObj0;
    MoveL [[299.842, -41.706, 85], [0, 0, 1, 0], [0,0,0,0], [0,9E9,9E9,9E9,9E9,9E9]], vel25, z1, marker\WObj:=WObj0;
    MoveL [[302.316, -44.854, 85], [0, 0, 1, 0], [0,0,0,0], [0,9E9,9E9,9E9,9E9,9E9]], vel25, z1, marker\WObj:=WObj0;
    MoveL [[305.015, -47.778, 85], [0, 0, 1, 0], [0,0,0,0], [0,9E9,9E9,9E9,9E9,9E9]], vel25, z1, marker\WObj:=WObj0;
    MoveL [[307.714, -50.252, 85], [0, 0, 1, 0], [0,0,0,0], [0,9E9,9E9,9E9,9E9,9E9]], vel25, z1, marker\WObj:=WObj0;
    MoveL [[311.312, -53.4, 85], [0, 0, 1, 0], [0,0,0,0], [0,9E9,9E9,9E9,9E9,9E9]], vel25, z1, marker\WObj:=WObj0;
    MoveL [[314.91, -55.649, 85], [0, 0, 1, 0], [0,0,0,0], [0,9E9,9E9,9E9,9E9,9E9]], vel25, z1, marker\WObj:=WObj0;
    MoveL [[318.509, -57.448, 85], [0, 0, 1, 0], [0,0,0,0], [0,9E9,9E9,9E9,9E9,9E9]], vel25, z1, marker\WObj:=WObj0;
    MoveL [[323.006, -59.023, 85], [0, 0, 1, 0], [0,0,0,0], [0,9E9,9E9,9E9,9E9,9E9]], vel25, z1, marker\WObj:=WObj0;
    MoveL [[326.83, -60.147, 85], [0, 0, 1, 0], [0,0,0,0], [0,9E9,9E9,9E9,9E9,9E9]], vel25, z1, marker\WObj:=WObj0;
    MoveL [[330.653, -61.047, 85], [0, 0, 1, 0], [0,0,0,0], [0,9E9,9E9,9E9,9E9,9E9]], vel25, z1, marker\WObj:=WObj0;
    MoveL [[334.926, -61.721, 85], [0, 0, 1, 0], [0,0,0,0], [0,9E9,9E9,9E9,9E9,9E9]], vel25, z1, marker\WObj:=WObj0;
    MoveL [[339.649, -62.171, 85], [0, 0, 1, 0], [0,0,0,0], [0,9E9,9E9,9E9,9E9,9E9]], vel25, z1, marker\WObj:=WObj0;
    MoveL [[344.372, -62.396, 85], [0, 0, 1, 0], [0,0,0,0], [0,9E9,9E9,9E9,9E9,9E9]], vel25, z1, marker\WObj:=WObj0;
    MoveL [[348.869, -62.171, 85], [0, 0, 1, 0], [0,0,0,0], [0,9E9,9E9,9E9,9E9,9E9]], vel25, z1, marker\WObj:=WObj0;
    MoveL [[352.243, -61.721, 85], [0, 0, 1, 0], [0,0,0,0], [0,9E9,9E9,9E9,9E9,9E9]], vel25, z1, marker\WObj:=WObj0;
    MoveL [[357.191, -60.597, 85], [0, 0, 1, 0], [0,0,0,0], [0,9E9,9E9,9E9,9E9,9E9]], vel25, z1, marker\WObj:=WObj0;
    MoveL [[361.913, -59.023, 85], [0, 0, 1, 0], [0,0,0,0], [0,9E9,9E9,9E9,9E9,9E9]], vel25, z1, marker\WObj:=WObj0;
    MoveL [[366.186, -57.448, 85], [0, 0, 1, 0], [0,0,0,0], [0,9E9,9E9,9E9,9E9,9E9]], vel25, z1, marker\WObj:=WObj0;
    MoveL [[370.01, -55.649, 85], [0, 0, 1, 0], [0,0,0,0], [0,9E9,9E9,9E9,9E9,9E9]], vel25, z1, marker\WObj:=WObj0;
    MoveL [[372.933, -53.85, 85], [0, 0, 1, 0], [0,0,0,0], [0,9E9,9E9,9E9,9E9,9E9]], vel25, z1, marker\WObj:=WObj0;
    MoveL [[376.981, -51.151, 85], [0, 0, 1, 0], [0,0,0,0], [0,9E9,9E9,9E9,9E9,9E9]], vel25, z1, marker\WObj:=WObj0;
    MoveL [[380.58, -48.228, 85], [0, 0, 1, 0], [0,0,0,0], [0,9E9,9E9,9E9,9E9,9E9]], vel25, z1, marker\WObj:=WObj0;
    MoveL [[384.178, -44.854, 85], [0, 0, 1, 0], [0,0,0,0], [0,9E9,9E9,9E9,9E9,9E9]], vel25, z1, marker\WObj:=WObj0;
    MoveL [[386.652, -42.38, 85], [0, 0, 1, 0], [0,0,0,0], [0,9E9,9E9,9E9,9E9,9E9]], vel25, z1, marker\WObj:=WObj0;
    MoveL [[388.901, -39.682, 85], [0, 0, 1, 0], [0,0,0,0], [0,9E9,9E9,9E9,9E9,9E9]], vel25, z1, marker\WObj:=WObj0;
    MoveL [[391.825, -35.858, 85], [0, 0, 1, 0], [0,0,0,0], [0,9E9,9E9,9E9,9E9,9E9]], vel25, z1, marker\WObj:=WObj0;
    MoveL [[394.523, -32.035, 85], [0, 0, 1, 0], [0,0,0,0], [0,9E9,9E9,9E9,9E9,9E9]], vel25, z1, marker\WObj:=WObj0;
    MoveL [[397.447, -26.863, 85], [0, 0, 1, 0], [0,0,0,0], [0,9E9,9E9,9E9,9E9,9E9]], vel25, z1, marker\WObj:=WObj0;
    MoveL [[399.021, -23.039, 85], [0, 0, 1, 0], [0,0,0,0], [0,9E9,9E9,9E9,9E9,9E9]], vel25, z1, marker\WObj:=WObj0;
    MoveL [[400.371, -18.991, 85], [0, 0, 1, 0], [0,0,0,0], [0,9E9,9E9,9E9,9E9,9E9]], vel25, z1, marker\WObj:=WObj0;
    MoveL [[401.27, -14.943, 85], [0, 0, 1, 0], [0,0,0,0], [0,9E9,9E9,9E9,9E9,9E9]], vel25, z1, marker\WObj:=WObj0;
    MoveL [[402.395, -10.22, 85], [0, 0, 1, 0], [0,0,0,0], [0,9E9,9E9,9E9,9E9,9E9]], vel25, z1, marker\WObj:=WObj0;
    MoveL [[402.844, -5.947, 85], [0, 0, 1, 0], [0,0,0,0], [0,9E9,9E9,9E9,9E9,9E9]], vel25, z1, marker\WObj:=WObj0;
    MoveL [[402.844, -1.899, 85], [0, 0, 1, 0], [0,0,0,0], [0,9E9,9E9,9E9,9E9,9E9]], vel25, z1, marker\WObj:=WObj0;
    MoveL [[402.844, 2.374, 85], [0, 0, 1, 0], [0,0,0,0], [0,9E9,9E9,9E9,9E9,9E9]], vel25, z1, marker\WObj:=WObj0;
    MoveL [[402.395, 6.647, 85], [0, 0, 1, 0], [0,0,0,0], [0,9E9,9E9,9E9,9E9,9E9]], vel25, z1, marker\WObj:=WObj0;
    MoveL [[401.495, 10.47, 85], [0, 0, 1, 0], [0,0,0,0], [0,9E9,9E9,9E9,9E9,9E9]], vel25, z1, marker\WObj:=WObj0;
    MoveL [[400.371, 14.518, 85], [0, 0, 1, 0], [0,0,0,0], [0,9E9,9E9,9E9,9E9,9E9]], vel25, z1, marker\WObj:=WObj0;
    MoveL [[399.246, 18.791, 85], [0, 0, 1, 0], [0,0,0,0], [0,9E9,9E9,9E9,9E9,9E9]], vel25, z1, marker\WObj:=WObj0;
    MoveL [[397.672, 22.614, 85], [0, 0, 1, 0], [0,0,0,0], [0,9E9,9E9,9E9,9E9,9E9]], vel25, z1, marker\WObj:=WObj0;
    MoveL [[395.873, 25.988, 85], [0, 0, 1, 0], [0,0,0,0], [0,9E9,9E9,9E9,9E9,9E9]], vel25, z1, marker\WObj:=WObj0;
    MoveL [[394.074, 28.912, 85], [0, 0, 1, 0], [0,0,0,0], [0,9E9,9E9,9E9,9E9,9E9]], vel25, z1, marker\WObj:=WObj0;
    MoveL [[391.6, 32.06, 85], [0, 0, 1, 0], [0,0,0,0], [0,9E9,9E9,9E9,9E9,9E9]], vel25, z1, marker\WObj:=WObj0;
    MoveL [[389.126, 34.759, 85], [0, 0, 1, 0], [0,0,0,0], [0,9E9,9E9,9E9,9E9,9E9]], vel25, z1, marker\WObj:=WObj0;
    MoveL [[385.977, 37.682, 85], [0, 0, 1, 0], [0,0,0,0], [0,9E9,9E9,9E9,9E9,9E9]], vel25, z1, marker\WObj:=WObj0;
    MoveL [[382.604, 40.156, 85], [0, 0, 1, 0], [0,0,0,0], [0,9E9,9E9,9E9,9E9,9E9]], vel25, z1, marker\WObj:=WObj0;
    MoveL [[379.23, 42.18, 85], [0, 0, 1, 0], [0,0,0,0], [0,9E9,9E9,9E9,9E9,9E9]], vel25, z1, marker\WObj:=WObj0;
    MoveL [[375.182, 43.98, 85], [0, 0, 1, 0], [0,0,0,0], [0,9E9,9E9,9E9,9E9,9E9]], vel25, z1, marker\WObj:=WObj0;
    MoveL [[371.359, 45.554, 85], [0, 0, 1, 0], [0,0,0,0], [0,9E9,9E9,9E9,9E9,9E9]], vel25, z1, marker\WObj:=WObj0;
    MoveL [[367.761, 46.678, 85], [0, 0, 1, 0], [0,0,0,0], [0,9E9,9E9,9E9,9E9,9E9]], vel25, z1, marker\WObj:=WObj0;
    MoveL [[363.938, 47.803, 85], [0, 0, 1, 0], [0,0,0,0], [0,9E9,9E9,9E9,9E9,9E9]], vel25, z1, marker\WObj:=WObj0;
    MoveL [[360.114, 48.927, 85], [0, 0, 1, 0], [0,0,0,0], [0,9E9,9E9,9E9,9E9,9E9]], vel25, z1, marker\WObj:=WObj0;
    MoveL [[356.291, 49.827, 85], [0, 0, 1, 0], [0,0,0,0], [0,9E9,9E9,9E9,9E9,9E9]], vel25, z1, marker\WObj:=WObj0;
    MoveL [[352.468, 50.277, 85], [0, 0, 1, 0], [0,0,0,0], [0,9E9,9E9,9E9,9E9,9E9]], vel25, z1, marker\WObj:=WObj0;
    MoveL [[348.645, 50.277, 85], [0, 0, 1, 0], [0,0,0,0], [0,9E9,9E9,9E9,9E9,9E9]], vel25, z1, marker\WObj:=WObj0;
    MoveL [[344.596, 50.277, 85], [0, 0, 1, 0], [0,0,0,0], [0,9E9,9E9,9E9,9E9,9E9]], vel25, z1, marker\WObj:=WObj0;
    MoveL [[340.998, 50.052, 85], [0, 0, 1, 0], [0,0,0,0], [0,9E9,9E9,9E9,9E9,9E9]], vel25, z1, marker\WObj:=WObj0;
    MoveL [[337.175, 49.602, 85], [0, 0, 1, 0], [0,0,0,0], [0,9E9,9E9,9E9,9E9,9E9]], vel25, z1, marker\WObj:=WObj0;
    MoveL [[332.902, 48.253, 85], [0, 0, 1, 0], [0,0,0,0], [0,9E9,9E9,9E9,9E9,9E9]], vel25, z1, marker\WObj:=WObj0;
    MoveL [[329.753, 46.903, 85], [0, 0, 1, 0], [0,0,0,0], [0,9E9,9E9,9E9,9E9,9E9]], vel25, z1, marker\WObj:=WObj0;
    MoveL [[326.155, 45.329, 85], [0, 0, 1, 0], [0,0,0,0], [0,9E9,9E9,9E9,9E9,9E9]], vel25, z1, marker\WObj:=WObj0;
    MoveL [[322.782, 43.305, 85], [0, 0, 1, 0], [0,0,0,0], [0,9E9,9E9,9E9,9E9,9E9]], vel25, z1, marker\WObj:=WObj0;
    MoveL [[319.408, 41.281, 85], [0, 0, 1, 0], [0,0,0,0], [0,9E9,9E9,9E9,9E9,9E9]], vel25, z1, marker\WObj:=WObj0;
    MoveL [[316.26, 39.032, 85], [0, 0, 1, 0], [0,0,0,0], [0,9E9,9E9,9E9,9E9,9E9]], vel25, z1, marker\WObj:=WObj0;
    MoveL [[312.886, 36.333, 85], [0, 0, 1, 0], [0,0,0,0], [0,9E9,9E9,9E9,9E9,9E9]], vel25, z1, marker\WObj:=WObj0;
    MoveL [[309.962, 33.634, 85], [0, 0, 1, 0], [0,0,0,0], [0,9E9,9E9,9E9,9E9,9E9]], vel25, z1, marker\WObj:=WObj0;
    MoveL [[307.264, 31.161, 85], [0, 0, 1, 0], [0,0,0,0], [0,9E9,9E9,9E9,9E9,9E9]], vel25, z1, marker\WObj:=WObj0;
    MoveL [[304.79, 28.012, 85], [0, 0, 1, 0], [0,0,0,0], [0,9E9,9E9,9E9,9E9,9E9]], vel25, z1, marker\WObj:=WObj0;
    MoveL [[302.316, 24.863, 85], [0, 0, 1, 0], [0,0,0,0], [0,9E9,9E9,9E9,9E9,9E9]], vel25, z1, marker\WObj:=WObj0;
    MoveL [[300.292, 21.49, 85], [0, 0, 1, 0], [0,0,0,0], [0,9E9,9E9,9E9,9E9,9E9]], vel25, z1, marker\WObj:=WObj0;
    MoveL [[298.268, 18.117, 85], [0, 0, 1, 0], [0,0,0,0], [0,9E9,9E9,9E9,9E9,9E9]], vel25, z1, marker\WObj:=WObj0;
    MoveL [[296.694, 14.968, 85], [0, 0, 1, 0], [0,0,0,0], [0,9E9,9E9,9E9,9E9,9E9]], vel25, z1, marker\WObj:=WObj0;
    MoveL [[295.344, 11.819, 85], [0, 0, 1, 0], [0,0,0,0], [0,9E9,9E9,9E9,9E9,9E9]], vel25, z1, marker\WObj:=WObj0;
    MoveL [[293.995, 8.671, 85], [0, 0, 1, 0], [0,0,0,0], [0,9E9,9E9,9E9,9E9,9E9]], vel25, z1, marker\WObj:=WObj0;
    MoveL [[292.646, 4.848, 85], [0, 0, 1, 0], [0,0,0,0], [0,9E9,9E9,9E9,9E9,9E9]], vel25, z1, marker\WObj:=WObj0;
    MoveL [[291.971, 1.474, 85], [0, 0, 1, 0], [0,0,0,0], [0,9E9,9E9,9E9,9E9,9E9]], vel25, z1, marker\WObj:=WObj0;
    MoveL [[291.296, -1.899, 85], [0, 0, 1, 0], [0,0,0,0], [0,9E9,9E9,9E9,9E9,9E9]], vel25, z1, marker\WObj:=WObj0;
    MoveL [[291.071, -5.722, 85], [0, 0, 1, 0], [0,0,0,0], [0,9E9,9E9,9E9,9E9,9E9]], vel25, z1, marker\WObj:=WObj0;
    MoveL [[290.846, -9.321, 85], [0, 0, 1, 0], [0,0,0,0], [0,9E9,9E9,9E9,9E9,9E9]], vel25, z1, marker\WObj:=WObj0;
    MoveL [[291.071, -13.369, 85], [0, 0, 1, 0], [0,0,0,0], [0,9E9,9E9,9E9,9E9,9E9]], vel25, z1, marker\WObj:=WObj0;
    MoveL [[291.971, -17.192, 85], [0, 0, 1, 0], [0,0,0,0], [0,9E9,9E9,9E9,9E9,9E9]], vel25, z1, marker\WObj:=WObj0;
    MoveL [[292.87, -21.015, 85], [0, 0, 1, 0], [0,0,0,0], [0,9E9,9E9,9E9,9E9,9E9]], vel25, z1, marker\WObj:=WObj0;
    MoveL [[293.77, -24.614, 85], [0, 0, 1, 0], [0,0,0,0], [0,9E9,9E9,9E9,9E9,9E9]], vel25, z1, marker\WObj:=WObj0;
    MoveL [[293.77, -24.614, 110], [0, 0, 1, 0], [0,0,0,0], [0,9E9,9E9,9E9,9E9,9E9]], vel50, z1, marker\WObj:=WObj0;
    TPWrite "Drawing stroke #1";
    MoveL [[292.646, -8.871, 110], [0, 0, 1, 0], [0,0,0,0], [0,9E9,9E9,9E9,9E9,9E9]], vel100, z5, marker\WObj:=WObj0;
    MoveL [[292.646, -8.871, 85], [0, 0, 1, 0], [0,0,0,0], [0,9E9,9E9,9E9,9E9,9E9]], vel50, z1, marker\WObj:=WObj0;
    MoveL [[296.469, -8.196, 85], [0, 0, 1, 0], [0,0,0,0], [0,9E9,9E9,9E9,9E9,9E9]], vel25, z1, marker\WObj:=WObj0;
    MoveL [[300.067, -7.522, 85], [0, 0, 1, 0], [0,0,0,0], [0,9E9,9E9,9E9,9E9,9E9]], vel25, z1, marker\WObj:=WObj0;
    MoveL [[303.441, -7.072, 85], [0, 0, 1, 0], [0,0,0,0], [0,9E9,9E9,9E9,9E9,9E9]], vel25, z1, marker\WObj:=WObj0;
    MoveL [[306.814, -7.297, 85], [0, 0, 1, 0], [0,0,0,0], [0,9E9,9E9,9E9,9E9,9E9]], vel25, z1, marker\WObj:=WObj0;
    MoveL [[310.637, -7.971, 85], [0, 0, 1, 0], [0,0,0,0], [0,9E9,9E9,9E9,9E9,9E9]], vel25, z1, marker\WObj:=WObj0;
    MoveL [[314.236, -8.871, 85], [0, 0, 1, 0], [0,0,0,0], [0,9E9,9E9,9E9,9E9,9E9]], vel25, z1, marker\WObj:=WObj0;
    MoveL [[317.609, -10.22, 85], [0, 0, 1, 0], [0,0,0,0], [0,9E9,9E9,9E9,9E9,9E9]], vel25, z1, marker\WObj:=WObj0;
    MoveL [[320.758, -11.795, 85], [0, 0, 1, 0], [0,0,0,0], [0,9E9,9E9,9E9,9E9,9E9]], vel25, z1, marker\WObj:=WObj0;
    MoveL [[323.906, -13.594, 85], [0, 0, 1, 0], [0,0,0,0], [0,9E9,9E9,9E9,9E9,9E9]], vel25, z1, marker\WObj:=WObj0;
    MoveL [[327.055, -15.618, 85], [0, 0, 1, 0], [0,0,0,0], [0,9E9,9E9,9E9,9E9,9E9]], vel25, z1, marker\WObj:=WObj0;
    MoveL [[329.978, -17.867, 85], [0, 0, 1, 0], [0,0,0,0], [0,9E9,9E9,9E9,9E9,9E9]], vel25, z1, marker\WObj:=WObj0;
    MoveL [[332.677, -20.116, 85], [0, 0, 1, 0], [0,0,0,0], [0,9E9,9E9,9E9,9E9,9E9]], vel25, z1, marker\WObj:=WObj0;
    MoveL [[335.376, -22.59, 85], [0, 0, 1, 0], [0,0,0,0], [0,9E9,9E9,9E9,9E9,9E9]], vel25, z1, marker\WObj:=WObj0;
    MoveL [[338.074, -25.288, 85], [0, 0, 1, 0], [0,0,0,0], [0,9E9,9E9,9E9,9E9,9E9]], vel25, z1, marker\WObj:=WObj0;
    MoveL [[340.773, -27.987, 85], [0, 0, 1, 0], [0,0,0,0], [0,9E9,9E9,9E9,9E9,9E9]], vel25, z1, marker\WObj:=WObj0;
    MoveL [[343.022, -30.686, 85], [0, 0, 1, 0], [0,0,0,0], [0,9E9,9E9,9E9,9E9,9E9]], vel25, z1, marker\WObj:=WObj0;
    MoveL [[345.271, -33.385, 85], [0, 0, 1, 0], [0,0,0,0], [0,9E9,9E9,9E9,9E9,9E9]], vel25, z1, marker\WObj:=WObj0;
    MoveL [[347.295, -36.308, 85], [0, 0, 1, 0], [0,0,0,0], [0,9E9,9E9,9E9,9E9,9E9]], vel25, z1, marker\WObj:=WObj0;
    MoveL [[349.544, -39.682, 85], [0, 0, 1, 0], [0,0,0,0], [0,9E9,9E9,9E9,9E9,9E9]], vel25, z1, marker\WObj:=WObj0;
    MoveL [[351.568, -43.28, 85], [0, 0, 1, 0], [0,0,0,0], [0,9E9,9E9,9E9,9E9,9E9]], vel25, z1, marker\WObj:=WObj0;
    MoveL [[352.918, -46.653, 85], [0, 0, 1, 0], [0,0,0,0], [0,9E9,9E9,9E9,9E9,9E9]], vel25, z1, marker\WObj:=WObj0;
    MoveL [[354.267, -50.477, 85], [0, 0, 1, 0], [0,0,0,0], [0,9E9,9E9,9E9,9E9,9E9]], vel25, z1, marker\WObj:=WObj0;
    MoveL [[355.391, -54.3, 85], [0, 0, 1, 0], [0,0,0,0], [0,9E9,9E9,9E9,9E9,9E9]], vel25, z1, marker\WObj:=WObj0;
    MoveL [[356.066, -58.123, 85], [0, 0, 1, 0], [0,0,0,0], [0,9E9,9E9,9E9,9E9,9E9]], vel25, z1, marker\WObj:=WObj0;
    MoveL [[356.516, -61.497, 85], [0, 0, 1, 0], [0,0,0,0], [0,9E9,9E9,9E9,9E9,9E9]], vel25, z1, marker\WObj:=WObj0;
    MoveL [[356.966, -64.87, 85], [0, 0, 1, 0], [0,0,0,0], [0,9E9,9E9,9E9,9E9,9E9]], vel25, z1, marker\WObj:=WObj0;
    MoveL [[357.865, -68.918, 85], [0, 0, 1, 0], [0,0,0,0], [0,9E9,9E9,9E9,9E9,9E9]], vel25, z1, marker\WObj:=WObj0;
    MoveL [[359.215, -73.191, 85], [0, 0, 1, 0], [0,0,0,0], [0,9E9,9E9,9E9,9E9,9E9]], vel25, z1, marker\WObj:=WObj0;
    MoveL [[360.789, -77.239, 85], [0, 0, 1, 0], [0,0,0,0], [0,9E9,9E9,9E9,9E9,9E9]], vel25, z1, marker\WObj:=WObj0;
    MoveL [[362.813, -80.838, 85], [0, 0, 1, 0], [0,0,0,0], [0,9E9,9E9,9E9,9E9,9E9]], vel25, z1, marker\WObj:=WObj0;
    MoveL [[365.287, -84.211, 85], [0, 0, 1, 0], [0,0,0,0], [0,9E9,9E9,9E9,9E9,9E9]], vel25, z1, marker\WObj:=WObj0;
    MoveL [[367.986, -87.36, 85], [0, 0, 1, 0], [0,0,0,0], [0,9E9,9E9,9E9,9E9,9E9]], vel25, z1, marker\WObj:=WObj0;
    MoveL [[370.684, -90.058, 85], [0, 0, 1, 0], [0,0,0,0], [0,9E9,9E9,9E9,9E9,9E9]], vel25, z1, marker\WObj:=WObj0;
    MoveL [[374.283, -92.532, 85], [0, 0, 1, 0], [0,0,0,0], [0,9E9,9E9,9E9,9E9,9E9]], vel25, z1, marker\WObj:=WObj0;
    MoveL [[377.431, -94.556, 85], [0, 0, 1, 0], [0,0,0,0], [0,9E9,9E9,9E9,9E9,9E9]], vel25, z1, marker\WObj:=WObj0;
    MoveL [[380.58, -95.906, 85], [0, 0, 1, 0], [0,0,0,0], [0,9E9,9E9,9E9,9E9,9E9]], vel25, z1, marker\WObj:=WObj0;
    MoveL [[384.403, -97.93, 85], [0, 0, 1, 0], [0,0,0,0], [0,9E9,9E9,9E9,9E9,9E9]], vel25, z1, marker\WObj:=WObj0;
    MoveL [[387.776, -99.954, 85], [0, 0, 1, 0], [0,0,0,0], [0,9E9,9E9,9E9,9E9,9E9]], vel25, z1, marker\WObj:=WObj0;
    MoveL [[390.25, -102.652, 85], [0, 0, 1, 0], [0,0,0,0], [0,9E9,9E9,9E9,9E9,9E9]], vel25, z1, marker\WObj:=WObj0;
    MoveL [[393.624, -100.179, 85], [0, 0, 1, 0], [0,0,0,0], [0,9E9,9E9,9E9,9E9,9E9]], vel25, z1, marker\WObj:=WObj0;
    MoveL [[394.523, -96.58, 85], [0, 0, 1, 0], [0,0,0,0], [0,9E9,9E9,9E9,9E9,9E9]], vel25, z1, marker\WObj:=WObj0;
    MoveL [[394.973, -93.207, 85], [0, 0, 1, 0], [0,0,0,0], [0,9E9,9E9,9E9,9E9,9E9]], vel25, z1, marker\WObj:=WObj0;
    MoveL [[395.198, -89.609, 85], [0, 0, 1, 0], [0,0,0,0], [0,9E9,9E9,9E9,9E9,9E9]], vel25, z1, marker\WObj:=WObj0;
    MoveL [[395.423, -85.111, 85], [0, 0, 1, 0], [0,0,0,0], [0,9E9,9E9,9E9,9E9,9E9]], vel25, z1, marker\WObj:=WObj0;
    MoveL [[395.198, -80.613, 85], [0, 0, 1, 0], [0,0,0,0], [0,9E9,9E9,9E9,9E9,9E9]], vel25, z1, marker\WObj:=WObj0;
    MoveL [[394.748, -76.34, 85], [0, 0, 1, 0], [0,0,0,0], [0,9E9,9E9,9E9,9E9,9E9]], vel25, z1, marker\WObj:=WObj0;
    MoveL [[394.298, -72.516, 85], [0, 0, 1, 0], [0,0,0,0], [0,9E9,9E9,9E9,9E9,9E9]], vel25, z1, marker\WObj:=WObj0;
    MoveL [[393.399, -68.918, 85], [0, 0, 1, 0], [0,0,0,0], [0,9E9,9E9,9E9,9E9,9E9]], vel25, z1, marker\WObj:=WObj0;
    MoveL [[392.274, -65.545, 85], [0, 0, 1, 0], [0,0,0,0], [0,9E9,9E9,9E9,9E9,9E9]], vel25, z1, marker\WObj:=WObj0;
    MoveL [[390.925, -62.396, 85], [0, 0, 1, 0], [0,0,0,0], [0,9E9,9E9,9E9,9E9,9E9]], vel25, z1, marker\WObj:=WObj0;
    MoveL [[389.126, -59.023, 85], [0, 0, 1, 0], [0,0,0,0], [0,9E9,9E9,9E9,9E9,9E9]], vel25, z1, marker\WObj:=WObj0;
    MoveL [[387.102, -55.649, 85], [0, 0, 1, 0], [0,0,0,0], [0,9E9,9E9,9E9,9E9,9E9]], vel25, z1, marker\WObj:=WObj0;
    MoveL [[384.853, -52.726, 85], [0, 0, 1, 0], [0,0,0,0], [0,9E9,9E9,9E9,9E9,9E9]], vel25, z1, marker\WObj:=WObj0;
    MoveL [[382.379, -49.802, 85], [0, 0, 1, 0], [0,0,0,0], [0,9E9,9E9,9E9,9E9,9E9]], vel25, z1, marker\WObj:=WObj0;
    MoveL [[379.905, -47.328, 85], [0, 0, 1, 0], [0,0,0,0], [0,9E9,9E9,9E9,9E9,9E9]], vel25, z1, marker\WObj:=WObj0;
    MoveL [[379.905, -47.328, 110], [0, 0, 1, 0], [0,0,0,0], [0,9E9,9E9,9E9,9E9,9E9]], vel50, z1, marker\WObj:=WObj0;
    TPWrite "Drawing stroke #2";
    MoveL [[292.87, -7.522, 110], [0, 0, 1, 0], [0,0,0,0], [0,9E9,9E9,9E9,9E9,9E9]], vel100, z5, marker\WObj:=WObj0;
    MoveL [[292.87, -7.522, 85], [0, 0, 1, 0], [0,0,0,0], [0,9E9,9E9,9E9,9E9,9E9]], vel50, z1, marker\WObj:=WObj0;
    MoveL [[297.368, -7.072, 85], [0, 0, 1, 0], [0,0,0,0], [0,9E9,9E9,9E9,9E9,9E9]], vel25, z1, marker\WObj:=WObj0;
    MoveL [[301.192, -6.622, 85], [0, 0, 1, 0], [0,0,0,0], [0,9E9,9E9,9E9,9E9,9E9]], vel25, z1, marker\WObj:=WObj0;
    MoveL [[305.015, -6.397, 85], [0, 0, 1, 0], [0,0,0,0], [0,9E9,9E9,9E9,9E9,9E9]], vel25, z1, marker\WObj:=WObj0;
    MoveL [[308.613, -6.172, 85], [0, 0, 1, 0], [0,0,0,0], [0,9E9,9E9,9E9,9E9,9E9]], vel25, z1, marker\WObj:=WObj0;
    MoveL [[312.211, -5.947, 85], [0, 0, 1, 0], [0,0,0,0], [0,9E9,9E9,9E9,9E9,9E9]], vel25, z1, marker\WObj:=WObj0;
    MoveL [[316.26, -5.273, 85], [0, 0, 1, 0], [0,0,0,0], [0,9E9,9E9,9E9,9E9,9E9]], vel25, z1, marker\WObj:=WObj0;
    MoveL [[319.858, -4.373, 85], [0, 0, 1, 0], [0,0,0,0], [0,9E9,9E9,9E9,9E9,9E9]], vel25, z1, marker\WObj:=WObj0;
    MoveL [[323.681, -3.698, 85], [0, 0, 1, 0], [0,0,0,0], [0,9E9,9E9,9E9,9E9,9E9]], vel25, z1, marker\WObj:=WObj0;
    MoveL [[327.055, -3.024, 85], [0, 0, 1, 0], [0,0,0,0], [0,9E9,9E9,9E9,9E9,9E9]], vel25, z1, marker\WObj:=WObj0;
    MoveL [[330.428, -2.124, 85], [0, 0, 1, 0], [0,0,0,0], [0,9E9,9E9,9E9,9E9,9E9]], vel25, z1, marker\WObj:=WObj0;
    MoveL [[333.801, -0.55, 85], [0, 0, 1, 0], [0,0,0,0], [0,9E9,9E9,9E9,9E9,9E9]], vel25, z1, marker\WObj:=WObj0;
    MoveL [[337.4, 1.249, 85], [0, 0, 1, 0], [0,0,0,0], [0,9E9,9E9,9E9,9E9,9E9]], vel25, z1, marker\WObj:=WObj0;
    MoveL [[340.773, 3.498, 85], [0, 0, 1, 0], [0,0,0,0], [0,9E9,9E9,9E9,9E9,9E9]], vel25, z1, marker\WObj:=WObj0;
    MoveL [[343.472, 5.747, 85], [0, 0, 1, 0], [0,0,0,0], [0,9E9,9E9,9E9,9E9,9E9]], vel25, z1, marker\WObj:=WObj0;
    MoveL [[346.396, 8.671, 85], [0, 0, 1, 0], [0,0,0,0], [0,9E9,9E9,9E9,9E9,9E9]], vel25, z1, marker\WObj:=WObj0;
    MoveL [[349.319, 11.819, 85], [0, 0, 1, 0], [0,0,0,0], [0,9E9,9E9,9E9,9E9,9E9]], vel25, z1, marker\WObj:=WObj0;
    MoveL [[351.793, 14.968, 85], [0, 0, 1, 0], [0,0,0,0], [0,9E9,9E9,9E9,9E9,9E9]], vel25, z1, marker\WObj:=WObj0;
    MoveL [[353.817, 18.566, 85], [0, 0, 1, 0], [0,0,0,0], [0,9E9,9E9,9E9,9E9,9E9]], vel25, z1, marker\WObj:=WObj0;
    MoveL [[355.841, 21.94, 85], [0, 0, 1, 0], [0,0,0,0], [0,9E9,9E9,9E9,9E9,9E9]], vel25, z1, marker\WObj:=WObj0;
    MoveL [[357.191, 25.088, 85], [0, 0, 1, 0], [0,0,0,0], [0,9E9,9E9,9E9,9E9,9E9]], vel25, z1, marker\WObj:=WObj0;
    MoveL [[358.54, 28.462, 85], [0, 0, 1, 0], [0,0,0,0], [0,9E9,9E9,9E9,9E9,9E9]], vel25, z1, marker\WObj:=WObj0;
    MoveL [[359.664, 32.06, 85], [0, 0, 1, 0], [0,0,0,0], [0,9E9,9E9,9E9,9E9,9E9]], vel25, z1, marker\WObj:=WObj0;
    MoveL [[360.114, 35.434, 85], [0, 0, 1, 0], [0,0,0,0], [0,9E9,9E9,9E9,9E9,9E9]], vel25, z1, marker\WObj:=WObj0;
    MoveL [[360.564, 38.807, 85], [0, 0, 1, 0], [0,0,0,0], [0,9E9,9E9,9E9,9E9,9E9]], vel25, z1, marker\WObj:=WObj0;
    MoveL [[360.789, 42.855, 85], [0, 0, 1, 0], [0,0,0,0], [0,9E9,9E9,9E9,9E9,9E9]], vel25, z1, marker\WObj:=WObj0;
    MoveL [[360.789, 46.678, 85], [0, 0, 1, 0], [0,0,0,0], [0,9E9,9E9,9E9,9E9,9E9]], vel25, z1, marker\WObj:=WObj0;
    MoveL [[361.014, 51.401, 85], [0, 0, 1, 0], [0,0,0,0], [0,9E9,9E9,9E9,9E9,9E9]], vel25, z1, marker\WObj:=WObj0;
    MoveL [[361.239, 54.999, 85], [0, 0, 1, 0], [0,0,0,0], [0,9E9,9E9,9E9,9E9,9E9]], vel25, z1, marker\WObj:=WObj0;
    MoveL [[361.689, 59.048, 85], [0, 0, 1, 0], [0,0,0,0], [0,9E9,9E9,9E9,9E9,9E9]], vel25, z1, marker\WObj:=WObj0;
    MoveL [[362.588, 62.871, 85], [0, 0, 1, 0], [0,0,0,0], [0,9E9,9E9,9E9,9E9,9E9]], vel25, z1, marker\WObj:=WObj0;
    MoveL [[363.938, 66.694, 85], [0, 0, 1, 0], [0,0,0,0], [0,9E9,9E9,9E9,9E9,9E9]], vel25, z1, marker\WObj:=WObj0;
    MoveL [[365.287, 69.843, 85], [0, 0, 1, 0], [0,0,0,0], [0,9E9,9E9,9E9,9E9,9E9]], vel25, z1, marker\WObj:=WObj0;
    MoveL [[367.311, 73.216, 85], [0, 0, 1, 0], [0,0,0,0], [0,9E9,9E9,9E9,9E9,9E9]], vel25, z1, marker\WObj:=WObj0;
    MoveL [[369.56, 76.589, 85], [0, 0, 1, 0], [0,0,0,0], [0,9E9,9E9,9E9,9E9,9E9]], vel25, z1, marker\WObj:=WObj0;
    MoveL [[372.708, 80.188, 85], [0, 0, 1, 0], [0,0,0,0], [0,9E9,9E9,9E9,9E9,9E9]], vel25, z1, marker\WObj:=WObj0;
    MoveL [[376.307, 83.561, 85], [0, 0, 1, 0], [0,0,0,0], [0,9E9,9E9,9E9,9E9,9E9]], vel25, z1, marker\WObj:=WObj0;
    MoveL [[379.905, 86.71, 85], [0, 0, 1, 0], [0,0,0,0], [0,9E9,9E9,9E9,9E9,9E9]], vel25, z1, marker\WObj:=WObj0;
    MoveL [[382.829, 89.184, 85], [0, 0, 1, 0], [0,0,0,0], [0,9E9,9E9,9E9,9E9,9E9]], vel25, z1, marker\WObj:=WObj0;
    MoveL [[386.427, 91.882, 85], [0, 0, 1, 0], [0,0,0,0], [0,9E9,9E9,9E9,9E9,9E9]], vel25, z1, marker\WObj:=WObj0;
    MoveL [[389.351, 94.581, 85], [0, 0, 1, 0], [0,0,0,0], [0,9E9,9E9,9E9,9E9,9E9]], vel25, z1, marker\WObj:=WObj0;
    MoveL [[391.825, 97.055, 85], [0, 0, 1, 0], [0,0,0,0], [0,9E9,9E9,9E9,9E9,9E9]], vel25, z1, marker\WObj:=WObj0;
    MoveL [[394.523, 94.806, 85], [0, 0, 1, 0], [0,0,0,0], [0,9E9,9E9,9E9,9E9,9E9]], vel25, z1, marker\WObj:=WObj0;
    MoveL [[395.873, 91.208, 85], [0, 0, 1, 0], [0,0,0,0], [0,9E9,9E9,9E9,9E9,9E9]], vel25, z1, marker\WObj:=WObj0;
    MoveL [[396.772, 87.16, 85], [0, 0, 1, 0], [0,0,0,0], [0,9E9,9E9,9E9,9E9,9E9]], vel25, z1, marker\WObj:=WObj0;
    MoveL [[397.672, 82.662, 85], [0, 0, 1, 0], [0,0,0,0], [0,9E9,9E9,9E9,9E9,9E9]], vel25, z1, marker\WObj:=WObj0;
    MoveL [[398.347, 78.389, 85], [0, 0, 1, 0], [0,0,0,0], [0,9E9,9E9,9E9,9E9,9E9]], vel25, z1, marker\WObj:=WObj0;
    MoveL [[398.796, 74.565, 85], [0, 0, 1, 0], [0,0,0,0], [0,9E9,9E9,9E9,9E9,9E9]], vel25, z1, marker\WObj:=WObj0;
    MoveL [[398.571, 71.192, 85], [0, 0, 1, 0], [0,0,0,0], [0,9E9,9E9,9E9,9E9,9E9]], vel25, z1, marker\WObj:=WObj0;
    MoveL [[398.122, 67.369, 85], [0, 0, 1, 0], [0,0,0,0], [0,9E9,9E9,9E9,9E9,9E9]], vel25, z1, marker\WObj:=WObj0;
    MoveL [[397.447, 63.77, 85], [0, 0, 1, 0], [0,0,0,0], [0,9E9,9E9,9E9,9E9,9E9]], vel25, z1, marker\WObj:=WObj0;
    MoveL [[396.322, 60.397, 85], [0, 0, 1, 0], [0,0,0,0], [0,9E9,9E9,9E9,9E9,9E9]], vel25, z1, marker\WObj:=WObj0;
    MoveL [[394.973, 56.799, 85], [0, 0, 1, 0], [0,0,0,0], [0,9E9,9E9,9E9,9E9,9E9]], vel25, z1, marker\WObj:=WObj0;
    MoveL [[393.849, 53.2, 85], [0, 0, 1, 0], [0,0,0,0], [0,9E9,9E9,9E9,9E9,9E9]], vel25, z1, marker\WObj:=WObj0;
    MoveL [[392.274, 49.602, 85], [0, 0, 1, 0], [0,0,0,0], [0,9E9,9E9,9E9,9E9,9E9]], vel25, z1, marker\WObj:=WObj0;
    MoveL [[390.25, 45.779, 85], [0, 0, 1, 0], [0,0,0,0], [0,9E9,9E9,9E9,9E9,9E9]], vel25, z1, marker\WObj:=WObj0;
    MoveL [[388.676, 42.63, 85], [0, 0, 1, 0], [0,0,0,0], [0,9E9,9E9,9E9,9E9,9E9]], vel25, z1, marker\WObj:=WObj0;
    MoveL [[386.652, 39.707, 85], [0, 0, 1, 0], [0,0,0,0], [0,9E9,9E9,9E9,9E9,9E9]], vel25, z1, marker\WObj:=WObj0;
    MoveL [[386.652, 39.707, 110], [0, 0, 1, 0], [0,0,0,0], [0,9E9,9E9,9E9,9E9,9E9]], vel50, z1, marker\WObj:=WObj0;
    TPWrite "Drawing stroke #3";
    MoveL [[397.672, -26.863, 110], [0, 0, 1, 0], [0,0,0,0], [0,9E9,9E9,9E9,9E9,9E9]], vel100, z5, marker\WObj:=WObj0;
    MoveL [[397.672, -26.863, 85], [0, 0, 1, 0], [0,0,0,0], [0,9E9,9E9,9E9,9E9,9E9]], vel50, z1, marker\WObj:=WObj0;
    MoveL [[401.27, -27.088, 85], [0, 0, 1, 0], [0,0,0,0], [0,9E9,9E9,9E9,9E9,9E9]], vel25, z1, marker\WObj:=WObj0;
    MoveL [[405.318, -27.312, 85], [0, 0, 1, 0], [0,0,0,0], [0,9E9,9E9,9E9,9E9,9E9]], vel25, z1, marker\WObj:=WObj0;
    MoveL [[409.142, -27.312, 85], [0, 0, 1, 0], [0,0,0,0], [0,9E9,9E9,9E9,9E9,9E9]], vel25, z1, marker\WObj:=WObj0;
    MoveL [[412.515, -26.863, 85], [0, 0, 1, 0], [0,0,0,0], [0,9E9,9E9,9E9,9E9,9E9]], vel25, z1, marker\WObj:=WObj0;
    MoveL [[415.888, -26.638, 85], [0, 0, 1, 0], [0,0,0,0], [0,9E9,9E9,9E9,9E9,9E9]], vel25, z1, marker\WObj:=WObj0;
    MoveL [[417.912, -29.786, 85], [0, 0, 1, 0], [0,0,0,0], [0,9E9,9E9,9E9,9E9,9E9]], vel25, z1, marker\WObj:=WObj0;
    MoveL [[417.688, -33.834, 85], [0, 0, 1, 0], [0,0,0,0], [0,9E9,9E9,9E9,9E9,9E9]], vel25, z1, marker\WObj:=WObj0;
    MoveL [[417.912, -37.208, 85], [0, 0, 1, 0], [0,0,0,0], [0,9E9,9E9,9E9,9E9,9E9]], vel25, z1, marker\WObj:=WObj0;
    MoveL [[421.061, -35.409, 85], [0, 0, 1, 0], [0,0,0,0], [0,9E9,9E9,9E9,9E9,9E9]], vel25, z1, marker\WObj:=WObj0;
    MoveL [[421.736, -32.035, 85], [0, 0, 1, 0], [0,0,0,0], [0,9E9,9E9,9E9,9E9,9E9]], vel25, z1, marker\WObj:=WObj0;
    MoveL [[421.061, -28.437, 85], [0, 0, 1, 0], [0,0,0,0], [0,9E9,9E9,9E9,9E9,9E9]], vel25, z1, marker\WObj:=WObj0;
    MoveL [[418.587, -25.738, 85], [0, 0, 1, 0], [0,0,0,0], [0,9E9,9E9,9E9,9E9,9E9]], vel25, z1, marker\WObj:=WObj0;
    MoveL [[418.587, -25.738, 110], [0, 0, 1, 0], [0,0,0,0], [0,9E9,9E9,9E9,9E9,9E9]], vel50, z1, marker\WObj:=WObj0;
    TPWrite "Drawing stroke #4";
    MoveL [[401.495, 12.719, 110], [0, 0, 1, 0], [0,0,0,0], [0,9E9,9E9,9E9,9E9,9E9]], vel100, z5, marker\WObj:=WObj0;
    MoveL [[401.495, 12.719, 85], [0, 0, 1, 0], [0,0,0,0], [0,9E9,9E9,9E9,9E9,9E9]], vel50, z1, marker\WObj:=WObj0;
    MoveL [[405.543, 12.719, 85], [0, 0, 1, 0], [0,0,0,0], [0,9E9,9E9,9E9,9E9,9E9]], vel25, z1, marker\WObj:=WObj0;
    MoveL [[409.591, 12.719, 85], [0, 0, 1, 0], [0,0,0,0], [0,9E9,9E9,9E9,9E9,9E9]], vel25, z1, marker\WObj:=WObj0;
    MoveL [[414.089, 12.719, 85], [0, 0, 1, 0], [0,0,0,0], [0,9E9,9E9,9E9,9E9,9E9]], vel25, z1, marker\WObj:=WObj0;
    MoveL [[417.688, 12.719, 85], [0, 0, 1, 0], [0,0,0,0], [0,9E9,9E9,9E9,9E9,9E9]], vel25, z1, marker\WObj:=WObj0;
    MoveL [[421.061, 12.944, 85], [0, 0, 1, 0], [0,0,0,0], [0,9E9,9E9,9E9,9E9,9E9]], vel25, z1, marker\WObj:=WObj0;
    MoveL [[424.434, 13.169, 85], [0, 0, 1, 0], [0,0,0,0], [0,9E9,9E9,9E9,9E9,9E9]], vel25, z1, marker\WObj:=WObj0;
    MoveL [[426.459, 16.317, 85], [0, 0, 1, 0], [0,0,0,0], [0,9E9,9E9,9E9,9E9,9E9]], vel25, z1, marker\WObj:=WObj0;
    MoveL [[426.459, 19.916, 85], [0, 0, 1, 0], [0,0,0,0], [0,9E9,9E9,9E9,9E9,9E9]], vel25, z1, marker\WObj:=WObj0;
    MoveL [[423.31, 21.715, 85], [0, 0, 1, 0], [0,0,0,0], [0,9E9,9E9,9E9,9E9,9E9]], vel25, z1, marker\WObj:=WObj0;
    MoveL [[419.712, 21.04, 85], [0, 0, 1, 0], [0,0,0,0], [0,9E9,9E9,9E9,9E9,9E9]], vel25, z1, marker\WObj:=WObj0;
    MoveL [[417.688, 18.117, 85], [0, 0, 1, 0], [0,0,0,0], [0,9E9,9E9,9E9,9E9,9E9]], vel25, z1, marker\WObj:=WObj0;
    MoveL [[419.037, 14.968, 85], [0, 0, 1, 0], [0,0,0,0], [0,9E9,9E9,9E9,9E9,9E9]], vel25, z1, marker\WObj:=WObj0;
    MoveL [[421.736, 12.719, 85], [0, 0, 1, 0], [0,0,0,0], [0,9E9,9E9,9E9,9E9,9E9]], vel25, z1, marker\WObj:=WObj0;
    MoveL [[421.736, 12.719, 110], [0, 0, 1, 0], [0,0,0,0], [0,9E9,9E9,9E9,9E9,9E9]], vel50, z1, marker\WObj:=WObj0;
    TPWrite "Drawing stroke #5";
    MoveL [[346.171, -17.867, 110], [0, 0, 1, 0], [0,0,0,0], [0,9E9,9E9,9E9,9E9,9E9]], vel100, z5, marker\WObj:=WObj0;
    MoveL [[346.171, -17.867, 85], [0, 0, 1, 0], [0,0,0,0], [0,9E9,9E9,9E9,9E9,9E9]], vel50, z1, marker\WObj:=WObj0;
    MoveL [[349.769, -18.092, 85], [0, 0, 1, 0], [0,0,0,0], [0,9E9,9E9,9E9,9E9,9E9]], vel25, z1, marker\WObj:=WObj0;
    MoveL [[353.592, -18.092, 85], [0, 0, 1, 0], [0,0,0,0], [0,9E9,9E9,9E9,9E9,9E9]], vel25, z1, marker\WObj:=WObj0;
    MoveL [[357.191, -18.317, 85], [0, 0, 1, 0], [0,0,0,0], [0,9E9,9E9,9E9,9E9,9E9]], vel25, z1, marker\WObj:=WObj0;
    MoveL [[360.789, -18.541, 85], [0, 0, 1, 0], [0,0,0,0], [0,9E9,9E9,9E9,9E9,9E9]], vel25, z1, marker\WObj:=WObj0;
    MoveL [[364.162, -18.991, 85], [0, 0, 1, 0], [0,0,0,0], [0,9E9,9E9,9E9,9E9,9E9]], vel25, z1, marker\WObj:=WObj0;
    MoveL [[367.536, -19.216, 85], [0, 0, 1, 0], [0,0,0,0], [0,9E9,9E9,9E9,9E9,9E9]], vel25, z1, marker\WObj:=WObj0;
    MoveL [[367.536, -19.216, 110], [0, 0, 1, 0], [0,0,0,0], [0,9E9,9E9,9E9,9E9,9E9]], vel50, z1, marker\WObj:=WObj0;
    TPWrite "Drawing stroke #6";
    MoveL [[347.97, 0.35, 110], [0, 0, 1, 0], [0,0,0,0], [0,9E9,9E9,9E9,9E9,9E9]], vel100, z5, marker\WObj:=WObj0;
    MoveL [[347.97, 0.35, 85], [0, 0, 1, 0], [0,0,0,0], [0,9E9,9E9,9E9,9E9,9E9]], vel50, z1, marker\WObj:=WObj0;
    MoveL [[351.343, 0.575, 85], [0, 0, 1, 0], [0,0,0,0], [0,9E9,9E9,9E9,9E9,9E9]], vel25, z1, marker\WObj:=WObj0;
    MoveL [[354.942, 0.575, 85], [0, 0, 1, 0], [0,0,0,0], [0,9E9,9E9,9E9,9E9,9E9]], vel25, z1, marker\WObj:=WObj0;
    MoveL [[358.315, 0.8, 85], [0, 0, 1, 0], [0,0,0,0], [0,9E9,9E9,9E9,9E9,9E9]], vel25, z1, marker\WObj:=WObj0;
    MoveL [[361.913, 0.8, 85], [0, 0, 1, 0], [0,0,0,0], [0,9E9,9E9,9E9,9E9,9E9]], vel25, z1, marker\WObj:=WObj0;
    MoveL [[365.287, 0.575, 85], [0, 0, 1, 0], [0,0,0,0], [0,9E9,9E9,9E9,9E9,9E9]], vel25, z1, marker\WObj:=WObj0;
    MoveL [[368.885, 0.575, 85], [0, 0, 1, 0], [0,0,0,0], [0,9E9,9E9,9E9,9E9,9E9]], vel25, z1, marker\WObj:=WObj0;
    MoveL [[368.885, 0.575, 110], [0, 0, 1, 0], [0,0,0,0], [0,9E9,9E9,9E9,9E9,9E9]], vel50, z1, marker\WObj:=WObj0;
    TPWrite "Drawing stroke #7";
    MoveL [[375.182, -31.81, 110], [0, 0, 1, 0], [0,0,0,0], [0,9E9,9E9,9E9,9E9,9E9]], vel100, z5, marker\WObj:=WObj0;
    MoveL [[375.182, -31.81, 85], [0, 0, 1, 0], [0,0,0,0], [0,9E9,9E9,9E9,9E9,9E9]], vel50, z1, marker\WObj:=WObj0;
    MoveL [[377.656, -28.887, 85], [0, 0, 1, 0], [0,0,0,0], [0,9E9,9E9,9E9,9E9,9E9]], vel25, z1, marker\WObj:=WObj0;
    MoveL [[379.455, -25.963, 85], [0, 0, 1, 0], [0,0,0,0], [0,9E9,9E9,9E9,9E9,9E9]], vel25, z1, marker\WObj:=WObj0;
    MoveL [[381.479, -22.14, 85], [0, 0, 1, 0], [0,0,0,0], [0,9E9,9E9,9E9,9E9,9E9]], vel25, z1, marker\WObj:=WObj0;
    MoveL [[382.829, -18.541, 85], [0, 0, 1, 0], [0,0,0,0], [0,9E9,9E9,9E9,9E9,9E9]], vel25, z1, marker\WObj:=WObj0;
    MoveL [[383.728, -14.943, 85], [0, 0, 1, 0], [0,0,0,0], [0,9E9,9E9,9E9,9E9,9E9]], vel25, z1, marker\WObj:=WObj0;
    MoveL [[384.403, -11.12, 85], [0, 0, 1, 0], [0,0,0,0], [0,9E9,9E9,9E9,9E9,9E9]], vel25, z1, marker\WObj:=WObj0;
    MoveL [[384.853, -7.746, 85], [0, 0, 1, 0], [0,0,0,0], [0,9E9,9E9,9E9,9E9,9E9]], vel25, z1, marker\WObj:=WObj0;
    MoveL [[384.628, -4.373, 85], [0, 0, 1, 0], [0,0,0,0], [0,9E9,9E9,9E9,9E9,9E9]], vel25, z1, marker\WObj:=WObj0;
    MoveL [[384.403, -0.775, 85], [0, 0, 1, 0], [0,0,0,0], [0,9E9,9E9,9E9,9E9,9E9]], vel25, z1, marker\WObj:=WObj0;
    MoveL [[383.503, 2.599, 85], [0, 0, 1, 0], [0,0,0,0], [0,9E9,9E9,9E9,9E9,9E9]], vel25, z1, marker\WObj:=WObj0;
    MoveL [[382.154, 5.972, 85], [0, 0, 1, 0], [0,0,0,0], [0,9E9,9E9,9E9,9E9,9E9]], vel25, z1, marker\WObj:=WObj0;
    MoveL [[380.355, 9.346, 85], [0, 0, 1, 0], [0,0,0,0], [0,9E9,9E9,9E9,9E9,9E9]], vel25, z1, marker\WObj:=WObj0;
    MoveL [[378.331, 12.269, 85], [0, 0, 1, 0], [0,0,0,0], [0,9E9,9E9,9E9,9E9,9E9]], vel25, z1, marker\WObj:=WObj0;
    MoveL [[378.331, 12.269, 110], [0, 0, 1, 0], [0,0,0,0], [0,9E9,9E9,9E9,9E9,9E9]], vel50, z1, marker\WObj:=WObj0;
    MoveAbsJ [[0,0,0,0,90,0], [0,9E9,9E9,9E9,9E9,9E9]], vel100, z1, marker\WObj:=WObj0;

  ENDPROC

ENDMODULE
